img/icons/Linkedin.svg

<svg width="30" height="30" viewBox="0 0 30 30" fill="none" xmlns="http://www.w3.org/2000/svg">
<path d="M25.6055 0H4.39453C1.97159 0 0 1.97159 0 4.39453V25.6055C0 28.0284 1.97159 30 4.39453 30H25.6055C28.0284 30 30 28.0284 30 25.6055V4.39453C30 1.97159 28.0284 0 25.6055 0ZM10.6055 23.7891H7.08984V11.4844H10.6055V23.7891ZM10.6055 9.72656H7.08984V6.21094H10.6055V9.72656ZM22.9102 23.7891H19.3945V16.7578C19.3945 15.7887 18.6058 15 17.6367 15C16.6676 15 15.8789 15.7887 15.8789 16.7578V23.7891H12.3633V11.4844H15.8789V12.147C16.7999 11.8607 17.3982 11.4844 18.5156 11.4844C20.8999 11.4869 22.9102 13.6258 22.9102 16.1536V23.7891Z" fill="#21243D"/>
</svg>

<svg width="30" height="30" fill="none" xmlns="http://www.w3.org/2000/svg"><path d="M25.605 0H4.395A4.4 4.4 0 0 0 0 4.395v21.21A4.4 4.4 0 0 0 4.395 30h21.21A4.4 4.4 0 0 0 30 25.605V4.395A4.4 4.4 0 0 0 25.605 0Zm-15 23.79H7.09V11.483h3.515V23.79Zm0-14.063H7.09V6.21h3.515v3.516ZM22.91 23.789h-3.515v-7.031A1.76 1.76 0 0 0 17.637 15a1.76 1.76 0 0 0-1.758 1.758v7.031h-3.516V11.484h3.516v.663c.92-.286 1.52-.663 2.637-.663 2.384.003 4.394 2.142 4.394 4.67v7.635Z" fill="#21243D"/></svg>
